lib/brands/icons/jb-rubymine.svg

<svg xmlns="http://www.w3.org/2000/svg" fill="none" aria-hidden="true" viewBox="0 0 48 48"><g id="jb-rubymine-Icon"><g id="Group"><path id="Vector" fill="url(#paint0_linear_94_16921)" d="M35.8801 6L25.6792 9.72094L17.5201 6L9.6001 26.0391L18.721 22.3209L18.6001 32.5191L38.161 32.8791L42.0001 13.0791L35.8801 6Z"/><path id="Vector_2" fill="url(#paint1_linear_94_16921)" d="M32.1593 17.641L19.1993 9.11908L8.75928 15.5991L31.6812 24.481L32.1593 17.641Z"/><path id="Vector_3" fill="url(#paint2_linear_94_16921)" d="M20.9991 41.041L34.44 39.241L30.12 30.961L33 27.6L33.2391 25.44L19.1991 9.11908L6 12.3591V31.321L13.56 42L20.9991 41.041Z"/><path id="Vector_4" fill="black" d="M35.9981 11.9991H11.999V35.9981H35.9981V11.9991Z"/><path id="Vector_5" fill="white" d="M23.7607 14.4009H26.1598L28.6798 18.96L31.3207 14.4009H33.5988V25.2009H31.4388V18.1191L28.6798 22.7991L25.9207 18.24V25.2009H23.7607V14.4009ZM14.4007 14.4009H18.8388C20.0388 14.4009 20.9988 14.7609 21.7188 15.4809C22.3179 16.08 22.5626 16.9209 22.5626 18.0122C22.5652 18.7736 22.3579 19.5209 21.9635 20.1722C21.6166 20.758 21.0578 21.188 20.4026 21.3731L22.8017 25.2122H20.2704L18.2398 21.84H16.4398V25.2009H14.2798V14.4009H14.4007ZM18.7207 19.68C19.1513 19.7086 19.5778 19.5807 19.9217 19.32C20.221 19.0395 20.3944 18.6501 20.4026 18.24C20.4262 17.7885 20.2503 17.3495 19.9217 17.0391C19.5766 16.7813 19.1503 16.6565 18.7207 16.6875H16.5607V19.8009H18.7207V19.68ZM14.4007 32.0409H23.4007V33.4809H14.4007V32.0409Z"/></g></g><defs><linearGradient id="paint0_linear_94_16921" x1="31.5095" x2="24.4494" y1="33.0169" y2="8.84211" gradientUnits="userSpaceOnUse"><stop offset="0.17" stop-color="#FF1F51"/><stop offset="0.28" stop-color="#FF3648"/><stop offset="0.47" stop-color="#FF593B"/><stop offset="0.65" stop-color="#FF7231"/><stop offset="0.81" stop-color="#FF812B"/><stop offset="0.94" stop-color="#FF8629"/></linearGradient><linearGradient id="paint1_linear_94_16921" x1="23.1593" x2="21.2828" y1="12.6375" y2="23.6011" gradientUnits="userSpaceOnUse"><stop offset="0.02" stop-color="#9039D0"/><stop offset="0.63" stop-color="#FF1F51"/></linearGradient><linearGradient id="paint2_linear_94_16921" x1="6.135" x2="32.9734" y1="11.7713" y2="37.2969" gradientUnits="userSpaceOnUse"><stop offset="0.11" stop-color="#9039D0"/><stop offset="0.39" stop-color="#FF1F51"/><stop offset="0.63" stop-color="#FF1F51"/><stop offset="0.66" stop-color="#FF3648"/><stop offset="0.71" stop-color="#FF593B"/><stop offset="0.77" stop-color="#FF7231"/><stop offset="0.81" stop-color="#FF812B"/><stop offset="0.85" stop-color="#FF8629"/></linearGradient></defs></svg>

<svg xmlns="http://www.w3.org/2000/svg" fill="none" aria-hidden="true" viewBox="0 0 48 48"><path fill="url(#a)" d="m35.88 6-10.2 3.72L17.52 6 9.6 26.04l9.121-3.72-.12 10.2 19.56.36 3.84-19.8L35.88 6Z"/><path fill="url(#b)" d="M32.16 17.641 19.2 9.119 8.76 15.6l22.921 8.882.478-6.84Z"/><path fill="url(#c)" d="m21 41.041 13.44-1.8-4.32-8.28L33 27.6l.24-2.16L19.2 9.12 6 12.36v18.96L13.56 42l7.44-.959Z"/><path fill="#000" d="M35.998 12H12v23.998h24V12Z"/><path fill="#fff" d="M23.76 14.4h2.4l2.52 4.56 2.64-4.56h2.28v10.8h-2.16v-7.08l-2.76 4.68-2.758-4.56v6.96h-2.16V14.4Zm-9.36 0h4.439c1.2 0 2.16.36 2.88 1.08.599.6.844 1.44.844 2.532a4.143 4.143 0 0 1-.6 2.16 2.652 2.652 0 0 1-1.56 1.201l2.399 3.84H20.27l-2.03-3.373h-1.8v3.36h-2.16V14.4h.12Zm4.32 5.28c.431.029.858-.1 1.202-.36.299-.28.472-.67.48-1.08a1.541 1.541 0 0 0-.48-1.2 1.791 1.791 0 0 0-1.201-.352h-2.16V19.8h2.16v-.121ZM14.4 32.04h9v1.44h-9v-1.44Z"/><defs><linearGradient id="a" x1="31.509" x2="24.449" y1="33.017" y2="8.842" gradientUnits="userSpaceOnUse"><stop offset=".17" stop-color="#FF1F51"/><stop offset=".28" stop-color="#FF3648"/><stop offset=".47" stop-color="#FF593B"/><stop offset=".65" stop-color="#FF7231"/><stop offset=".81" stop-color="#FF812B"/><stop offset=".94" stop-color="#FF8629"/></linearGradient><linearGradient id="b" x1="23.159" x2="21.283" y1="12.637" y2="23.601" gradientUnits="userSpaceOnUse"><stop offset=".02" stop-color="#9039D0"/><stop offset=".63" stop-color="#FF1F51"/></linearGradient><linearGradient id="c" x1="6.135" x2="32.973" y1="11.771" y2="37.297" gradientUnits="userSpaceOnUse"><stop offset=".11" stop-color="#9039D0"/><stop offset=".39" stop-color="#FF1F51"/><stop offset=".63" stop-color="#FF1F51"/><stop offset=".66" stop-color="#FF3648"/><stop offset=".71" stop-color="#FF593B"/><stop offset=".77" stop-color="#FF7231"/><stop offset=".81" stop-color="#FF812B"/><stop offset=".85" stop-color="#FF8629"/></linearGradient></defs></svg>
